X: 4
T: Kerry Jig, The
Z: ceolachan
S: https://thesession.org/tunes/2188#setting21711
R: slide
M: 12/8
L: 1/8
K: Ador
|: A2 A AGE A2 A AGE | G2 G G2 A GED DEG |
A2 A ABc dBA G2 D |[1 GBd dcB c3 B3 :|[2 GBd dcB c3 c2 ||
|: d |e2 e e2 d cde g3 | G2 G G2 A GED DEG |
A2 A ABc dBA G3 |[1 GBd dcB c3 c2 :|[2 GBd dcB c3 B3 |]
